_assets/images/vector/arrow-right.svg

<svg width="30" height="15" viewBox="0 0 30 15" version="1.1" xmlns="http://www.w3.org/2000/svg"
     xmlns:xlink="http://www.w3.org/1999/xlink">
    <g id="Canvas" transform="translate(-26602 -2942)">
        <g id="Vector 2">
            <use xlink:href="#path0_stroke" transform="translate(26602 2943)" fill="#FFFFFF"/>
        </g>
    </g>
    <defs>
        <path id="path0_stroke"
              d="M 28.5 6.5L 28.8536 6.85355L 29.2071 6.5L 28.8536 6.14645L 28.5 6.5ZM 0 7L 28.5 7L 28.5 6L 0 6L 0 7ZM 28.8536 6.14645L 22.3536 -0.353553L 21.6464 0.353553L 28.1464 6.85355L 28.8536 6.14645ZM 28.1464 6.14645L 21.6464 12.6464L 22.3536 13.3536L 28.8536 6.85355L 28.1464 6.14645Z"/>
    </defs>
</svg>

<svg width="30" height="15" viewBox="0 0 30 15" xmlns="http://www.w3.org/2000/svg" xmlns:xlink="http://www.w3.org/1999/xlink"><use xlink:href="#a" transform="translate(0 1)" fill="#FFF"/><defs><path id="a" d="M28.5 6.5l.354.354.353-.354-.353-.354-.354.354zM0 7h28.5V6H0v1zm28.854-.854l-6.5-6.5-.708.708 6.5 6.5.708-.708zm-.708 0l-6.5 6.5.708.708 6.5-6.5-.708-.708z"/></defs></svg>
